images/ic_user.svg

<svg width="18" height="18" viewBox="0 0 18 18" fill="none" xmlns="http://www.w3.org/2000/svg">
<g clip-path="url(#clip0)">
<path d="M17.9547 15.4238C17.8756 15.0437 17.5033 14.7997 17.123 14.8788C16.7428 14.9579 16.4988 15.3303 16.578 15.7104C16.6236 15.9294 16.5693 16.1539 16.4291 16.3264C16.3479 16.4262 16.1668 16.5938 15.8666 16.5938H2.13409C1.83393 16.5938 1.65284 16.4262 1.57163 16.3264C1.43139 16.1539 1.37711 15.9294 1.4227 15.7104C2.15241 12.2055 5.24387 9.64526 8.81395 9.55891C8.87579 9.56131 8.93791 9.5625 9.00035 9.5625C9.063 9.5625 9.12537 9.56127 9.18745 9.55888C11.7022 9.61921 14.0266 10.893 15.4343 12.9922C15.6505 13.3148 16.0873 13.4009 16.4098 13.1847C16.7324 12.9684 16.8185 12.5317 16.6023 12.2091C15.4485 10.4884 13.7732 9.23723 11.8631 8.60854C13.0271 7.73564 13.7816 6.34489 13.7816 4.78125C13.7816 2.14488 11.6368 0 9.00035 0C6.36395 0 4.2191 2.14488 4.2191 4.78125C4.2191 6.34584 4.97454 7.73733 6.13979 8.61015C5.07217 8.96164 4.07039 9.50857 3.19359 10.2298C1.58583 11.5522 0.467966 13.3969 0.0459855 15.4238C-0.0862723 16.059 0.0721769 16.7113 0.480622 17.2136C0.887064 17.7134 1.48975 18 2.13409 18H15.8666C16.511 18 17.1136 17.7134 17.52 17.2136C17.9286 16.7113 18.087 16.059 17.9547 15.4238ZM5.62535 4.78125C5.62535 2.92025 7.13936 1.40625 9.00035 1.40625C10.8613 1.40625 12.3754 2.92025 12.3754 4.78125C12.3754 6.58494 10.9531 8.0627 9.17118 8.15196C9.11433 8.15091 9.05737 8.15038 9.00035 8.15038C8.94361 8.15038 8.88687 8.15094 8.8302 8.152C7.04795 8.06309 5.62535 6.58519 5.62535 4.78125Z" fill="#979797"/>
</g>
<defs>
<clipPath id="clip0">
<rect width="18" height="18" fill="white"/>
</clipPath>
</defs>
</svg>

<svg xmlns="http://www.w3.org/2000/svg" fill="none" viewBox="0 0 18 18"><g clip-path="url(#A)"><path d="M17.955 15.424c-.08-.38-.45-.624-.832-.545s-.624.452-.545.832c.046.22-.01.444-.15.616-.08.1-.262.267-.563.267H2.134c-.3 0-.48-.168-.562-.267-.14-.172-.195-.397-.15-.616a7.77 7.77 0 0 1 7.391-6.151L9 9.563l.187-.004c2.515.06 4.84 1.334 6.247 3.433.216.323.653.41.976.193s.41-.653.192-.976c-1.154-1.72-2.83-2.972-4.74-3.6 1.164-.873 1.918-2.264 1.918-3.827A4.79 4.79 0 0 0 9 0a4.79 4.79 0 0 0-4.781 4.781c0 1.565.755 2.956 1.92 3.83-1.068.35-2.07.898-2.946 1.62C1.586 11.552.468 13.397.046 15.424c-.132.635.026 1.287.435 1.8A2.12 2.12 0 0 0 2.134 18h13.733a2.12 2.12 0 0 0 1.653-.786c.41-.502.567-1.155.435-1.8zM5.626 4.78a3.38 3.38 0 0 1 3.375-3.375 3.38 3.38 0 0 1 3.375 3.375 3.38 3.38 0 0 1-3.204 3.371L9 8.15l-.17.002a3.38 3.38 0 0 1-3.205-3.371z" fill="#979797"/></g><defs><clipPath id="A"><path fill="#fff" d="M0 0h18v18H0z"/></clipPath></defs></svg>
